public/images/logos/snapchat.svg

<?xml version="1.0" encoding="UTF-8" standalone="no"?>
<!DOCTYPE svg PUBLIC "-//W3C//DTD SVG 1.1//EN" "http://www.w3.org/Graphics/SVG/1.1/DTD/svg11.dtd">
<!-- Created with Vectornator (http://vectornator.io/) -->
<svg height="100%" stroke-miterlimit="10" style="fill-rule:nonzero;clip-rule:evenodd;stroke-linecap:round;stroke-linejoin:round;" version="1.1" viewBox="0 0 85.33 80" width="100%" xml:space="preserve" xmlns="http://www.w3.org/2000/svg" xmlns:xlink="http://www.w3.org/1999/xlink">
<defs/>
<path d="M0 0L85.33 0L85.33 80L0 80L0 0Z" fill="#000000" fill-opacity="0" fill-rule="nonzero" opacity="1" stroke="none"/>
<clipPath id="ArtboardFrame">
<rect height="80" width="85.33" x="0" y="0"/>
</clipPath>
<g clip-path="url(#ArtboardFrame)" id="Sem-Título">
<path d="M83.6248 59.8227C72.1859 57.9754 67.0704 46.2523 66.8572 45.755L66.8572 45.6839C66.2888 44.8313 66.1467 43.7656 66.502 42.7709C67.1414 41.2789 69.486 40.5684 71.1202 40.071C71.5465 39.929 71.9728 39.7869 72.328 39.6448C73.6069 39.2185 74.7437 38.508 75.6673 37.5843C76.3068 36.9449 76.662 36.1633 76.7331 35.2397C76.662 33.8898 75.6673 32.6819 74.0332 32.0425C73.4648 31.7583 72.8254 31.6873 72.1859 31.6873C71.6175 31.6873 70.9781 31.8294 70.4807 32.0425C69.3439 32.6109 68.1361 32.9661 66.8572 33.1082C66.4309 33.1082 66.0757 32.9661 65.6494 32.824C65.6494 32.3267 65.7204 31.7583 65.7915 31.1899L65.7915 30.9768C66.0757 25.1507 66.502 17.9748 64.6547 13.7118C62.4522 8.52524 58.3313 4.40439 53.2158 2.13082C50.1607 0.709833 46.8214-0.000657785 43.411-0.000657785L43.411-0.000657785L43.2689-0.000657785C42.7716-0.000657785 41.8479-0.000657785 41.7769-0.000657785C38.4376-0.000657785 35.0983 0.709833 31.9721 2.05977C29.6985 3.05445 27.5671 4.47544 25.7908 6.18062C23.5883 8.31209 21.8121 10.8699 20.6042 13.6408C18.6859 17.9037 19.1122 25.0797 19.5385 30.9057C19.5385 31.5452 19.6096 32.1135 19.6806 32.824C19.2543 33.0372 18.757 33.1082 18.2596 33.1082C16.9097 33.0372 15.6308 32.6819 14.423 32.1135C13.9967 31.9004 13.4993 31.8294 13.002 31.8294C12.0784 31.8294 11.2258 32.1135 10.4442 32.5398C9.52058 33.0372 8.88114 33.8187 8.59694 34.8134C8.3838 35.9502 8.88114 37.158 9.80478 37.7975C10.7284 38.579 11.8652 39.2185 13.002 39.6448L14.2809 40.071C15.844 40.5684 18.2596 41.2789 18.8991 42.7709C19.1833 43.7656 19.0412 44.8313 18.4728 45.6839L18.4728 45.755C17.336 48.1706 15.915 50.4442 14.2098 52.4336C12.7178 54.2098 10.9416 55.7019 9.02324 56.9807C6.82072 58.4017 4.334 59.3964 1.77623 59.8227C0.710491 59.9648 0 60.8884 0 61.8831C0 62.1673 0.0710491 62.4515 0.213147 62.7357C0.639442 63.6594 1.56308 64.5119 3.12616 65.2224C5.82603 66.2882 8.59694 66.9987 11.4389 67.3539C11.6521 67.9223 11.7942 68.5617 11.9363 69.2012C12.0784 69.8406 12.2204 70.4801 12.4336 71.1906C12.6467 72.2563 13.6414 72.9668 14.7072 72.8247C15.3466 72.8247 16.0571 72.6826 16.6965 72.5405C18.1886 72.2563 19.6806 72.0432 21.1726 72.0432C22.2384 72.0432 23.3041 72.1142 24.3699 72.3274C26.5013 72.6826 28.2776 73.9615 30.338 75.4535C33.3931 77.585 36.8034 80.0007 42.1321 80.0007C42.2742 80.0007 42.4163 80.0007 42.5584 80.0007C42.7716 80.0007 42.9137 80.0007 43.1979 80.0007C48.4555 80.0007 51.9369 77.585 54.992 75.4535C57.0524 73.9615 58.8997 72.7536 60.9601 72.3274C62.0259 72.1142 63.0916 72.0432 64.1574 72.0432C65.6494 72.0432 67.1414 72.1853 68.6335 72.5405C69.2729 72.6826 69.9123 72.7536 70.6228 72.7536L70.6939 72.7536C71.6886 72.8247 72.6122 72.1142 72.8964 71.1195C73.1096 70.4801 73.2516 69.8406 73.3937 69.1301C73.5358 68.4907 73.6779 67.9223 73.8911 67.2829C76.7331 66.9276 79.504 66.1461 82.2038 65.0803C83.4117 64.654 84.4774 63.7304 85.1169 62.5936C85.259 62.3094 85.33 62.0252 85.33 61.741C85.33 60.8884 84.6195 59.9648 83.6248 59.8227Z" fill="#000000" fill-rule="nonzero" opacity="1" stroke="none"/>
</g>
</svg>

<?xml version="1.0" encoding="UTF-8"?><svg id="a" xmlns="http://www.w3.org/2000/svg" xmlns:xlink="http://www.w3.org/1999/xlink" viewBox="0 0 85.33 80"><defs><style>.c{fill:none;}.c,.d{stroke-width:0px;}.e{clip-path:url(#b);}</style><clipPath id="b"><rect class="c" y="0" width="85.33" height="80"/></clipPath></defs><g class="e"><path class="d" d="m83.62,59.82c-11.44-1.85-16.55-13.57-16.77-14.07v-.07c-.57-.85-.71-1.92-.36-2.91.64-1.49,2.98-2.2,4.62-2.7.43-.14.85-.28,1.21-.43,1.28-.43,2.42-1.14,3.34-2.06.64-.64.99-1.42,1.07-2.34-.07-1.35-1.07-2.56-2.7-3.2-.57-.28-1.21-.36-1.85-.36-.57,0-1.21.14-1.71.36-1.14.57-2.34.92-3.62,1.07-.43,0-.78-.14-1.21-.28,0-.5.07-1.07.14-1.63v-.21c.28-5.83.71-13-1.14-17.27-2.2-5.19-6.32-9.31-11.44-11.58-3.06-1.42-6.39-2.13-9.8-2.13h-1.63c-3.34,0-6.68.71-9.8,2.06-2.27.99-4.4,2.42-6.18,4.12-2.2,2.13-3.98,4.69-5.19,7.46-1.92,4.26-1.49,11.44-1.07,17.26,0,.64.07,1.21.14,1.92-.43.21-.92.28-1.42.28-1.35-.07-2.63-.43-3.84-.99-.43-.21-.92-.28-1.42-.28-.92,0-1.78.28-2.56.71-.92.5-1.56,1.28-1.85,2.27-.21,1.14.28,2.34,1.21,2.98.92.78,2.06,1.42,3.2,1.85l1.28.43c1.56.5,3.98,1.21,4.62,2.7.28.99.14,2.06-.43,2.91v.07c-1.14,2.42-2.56,4.69-4.26,6.68-1.49,1.78-3.27,3.27-5.19,4.55-2.2,1.42-4.69,2.42-7.25,2.84-1.07.14-1.78,1.07-1.78,2.06,0,.28.07.57.21.85.43.92,1.35,1.78,2.91,2.49,2.7,1.07,5.47,1.78,8.31,2.13.21.57.36,1.21.5,1.85.14.64.28,1.28.5,1.99.21,1.07,1.21,1.78,2.27,1.63.64,0,1.35-.14,1.99-.28,1.49-.28,2.98-.5,4.48-.5,1.07,0,2.13.07,3.2.28,2.13.36,3.91,1.63,5.97,3.13,3.06,2.13,6.47,4.55,11.79,4.55h1.07c5.26,0,8.74-2.42,11.79-4.55,2.06-1.49,3.91-2.7,5.97-3.13,1.07-.21,2.13-.28,3.2-.28,1.49,0,2.98.14,4.48.5.64.14,1.28.21,1.99.21h.07c.99.07,1.92-.64,2.2-1.63.21-.64.36-1.28.5-1.99.14-.64.28-1.21.5-1.85,2.84-.36,5.61-1.14,8.31-2.2,1.21-.43,2.27-1.35,2.91-2.49.14-.28.21-.57.21-.85,0-.85-.71-1.78-1.71-1.92Z"/></g></svg>
